X: 29341
T: Newfoundland Spring
R: jig
M: 6/8
K: Edorian
BEE BEB|GBc d2B|AFD DED|AFD DFA|
BEE BEB|GBc d2B|AFD DED|FEE EFA:|
B2e efe|GBc d2B|AFD DED|AFD DFA|
B2e efe|GBc d2B|AFD DED|FEE E3:|

